lib/brands/icons/intercom.svg

<svg xmlns="http://www.w3.org/2000/svg" fill="none" aria-hidden="true" viewBox="0 0 48 48"><g id="intercom-Icon"><path id="Vector" fill="black" d="M36.8347 25.81C36.8347 26.1309 36.7118 26.4386 36.493 26.6656C36.2742 26.8925 35.9774 27.02 35.668 27.02C35.3585 27.02 35.0617 26.8925 34.8429 26.6656C34.6241 26.4386 34.5011 26.1309 34.5011 25.81V15.0001C34.5011 14.6792 34.6241 14.3714 34.8429 14.1445C35.0617 13.9176 35.3585 13.7901 35.668 13.7901C35.9774 13.7901 36.2742 13.9176 36.493 14.1445C36.7118 14.3714 36.8347 14.6792 36.8347 15.0001V25.81ZM36.4298 33.2999C36.2754 33.4599 31.9361 37.2099 23.9807 37.2099C16.0253 37.2099 11.7149 33.4799 11.5317 33.3199C11.4162 33.219 11.3211 33.0954 11.2518 32.9562C11.1825 32.817 11.1404 32.6651 11.1278 32.509C11.1153 32.3529 11.1326 32.1958 11.1787 32.0467C11.2248 31.8975 11.2989 31.7593 11.3967 31.6399C11.5981 31.3983 11.8834 31.249 12.1905 31.2247C12.4976 31.2003 12.8015 31.3029 13.0359 31.5099C13.1035 31.5599 16.9799 34.8199 23.9711 34.8199C30.9622 34.8199 34.8676 31.5399 34.9062 31.5099C35.1432 31.3047 35.4482 31.2035 35.7561 31.2278C36.064 31.252 36.3507 31.3999 36.5551 31.6399C36.7518 31.878 36.8501 32.1869 36.8284 32.4996C36.8067 32.8123 36.6669 33.1035 36.4394 33.3099L36.4298 33.2999ZM11.117 15.0001C11.1344 14.6782 11.2741 14.3765 11.5054 14.161C11.7366 13.9455 12.0408 13.8337 12.3513 13.8501C12.6392 13.867 12.9108 13.9939 13.1138 14.2063C13.3168 14.4186 13.4368 14.7014 13.4506 15.0001V25.79C13.4506 26.1109 13.3277 26.4187 13.1089 26.6456C12.8901 26.8725 12.5933 27 12.2838 27C11.9744 27 11.6776 26.8725 11.4588 26.6456C11.2399 26.4187 11.117 26.1109 11.117 25.79V15.0001ZM16.9703 12.6001C16.9877 12.2782 17.1273 11.9765 17.3586 11.761C17.5899 11.5455 17.8941 11.4337 18.2046 11.4501C18.4924 11.4671 18.7641 11.594 18.9671 11.8063C19.17 12.0187 19.29 12.3014 19.3039 12.6001V28.6C19.3039 28.9208 19.1809 29.2286 18.9622 29.4556C18.7433 29.6825 18.4465 29.8099 18.1371 29.8099C17.8276 29.8099 17.5309 29.6825 17.312 29.4556C17.0932 29.2286 16.9703 28.9208 16.9703 28.6V12.6001ZM22.8525 12.0001C22.8525 11.6792 22.9754 11.3714 23.1942 11.1445C23.4131 10.9176 23.7098 10.7901 24.0193 10.7901C24.3287 10.7901 24.6255 10.9176 24.8443 11.1445C25.0631 11.3714 25.1861 11.6792 25.1861 12.0001V29.3999C25.1861 29.7209 25.0631 30.0286 24.8443 30.2555C24.6255 30.4825 24.3287 30.61 24.0193 30.61C23.7098 30.61 23.4131 30.4825 23.1942 30.2555C22.9754 30.0286 22.8525 29.7209 22.8525 29.3999V12.0001ZM28.6382 12.6001C28.6382 12.2792 28.7612 11.9714 28.98 11.7445C29.1988 11.5176 29.4956 11.3901 29.8051 11.3901C30.1145 11.3901 30.4113 11.5176 30.6301 11.7445C30.8489 11.9714 30.9718 12.2792 30.9718 12.6001V28.6C30.9718 28.9208 30.8489 29.2286 30.6301 29.4556C30.4113 29.6825 30.1145 29.8099 29.8051 29.8099C29.4956 29.8099 29.1988 29.6825 28.98 29.4556C28.7612 29.2286 28.6382 28.9208 28.6382 28.6V12.6001ZM37.153 6.0001H10.847C10.2738 5.99621 9.70549 6.10954 9.17462 6.3337C8.64369 6.55781 8.16067 6.88833 7.75311 7.30631C7.34554 7.72434 7.0215 8.22157 6.79955 8.76963C6.57755 9.31764 6.46202 9.90573 6.45947 10.5002V37.4999C6.46202 38.0943 6.57755 38.6824 6.79955 39.2304C7.0215 39.7784 7.34554 40.2757 7.75311 40.6937C8.16067 41.1117 8.64369 41.4422 9.17462 41.6663C9.70549 41.8905 10.2738 42.0037 10.847 41.9999H37.153C37.7254 42.0037 38.2929 41.8908 38.8232 41.6673C39.3534 41.4438 39.8361 41.1141 40.2435 40.6972C40.6509 40.2803 40.9751 39.7842 41.1977 39.2373C41.4202 38.6904 41.5367 38.1034 41.5405 37.5099V10.5002C41.538 9.90655 41.4227 9.31932 41.2014 8.77193C40.98 8.22455 40.6568 7.72775 40.2503 7.30987C39.8437 6.89203 39.3618 6.56131 38.832 6.33658C38.3023 6.11184 37.735 5.99756 37.1626 6.0001"/></g></svg>

<svg xmlns="http://www.w3.org/2000/svg" fill="none" aria-hidden="true" viewBox="0 0 48 48"><path fill="#000" d="M36.835 25.81c0 .32-.123.629-.342.856a1.146 1.146 0 0 1-.825.354c-.31 0-.606-.128-.825-.354a1.233 1.233 0 0 1-.342-.856V15c0-.32.123-.629.342-.855.219-.227.515-.355.825-.355.31 0 .606.128.825.355.219.226.342.534.342.855v10.81Zm-.405 7.49c-.155.16-4.494 3.91-12.45 3.91-7.955 0-12.265-3.73-12.448-3.89a1.19 1.19 0 0 1-.28-.364 1.225 1.225 0 0 1 .145-1.316 1.14 1.14 0 0 1 1.64-.13c.067.05 3.943 3.31 10.934 3.31s10.897-3.28 10.935-3.31a1.158 1.158 0 0 1 1.65.13 1.219 1.219 0 0 1-.117 1.67l-.01-.01ZM11.117 15c.017-.322.157-.623.388-.839a1.15 1.15 0 0 1 .846-.31c.288.016.56.143.763.355.203.213.323.495.337.794v10.79c0 .32-.123.629-.342.856a1.146 1.146 0 0 1-.825.354c-.31 0-.606-.128-.825-.354a1.233 1.233 0 0 1-.342-.856V15Zm5.853-2.4c.018-.322.157-.623.389-.839.23-.215.535-.327.846-.31.287.016.56.143.762.355.203.213.323.495.337.794v16c0 .32-.123.629-.342.856a1.146 1.146 0 0 1-.825.354c-.31 0-.606-.127-.825-.354a1.233 1.233 0 0 1-.342-.856v-16Zm5.883-.6c0-.32.122-.629.341-.855.22-.227.516-.355.825-.355.31 0 .607.128.825.355.22.226.342.534.342.855v17.4c0 .32-.123.629-.342.856a1.146 1.146 0 0 1-.825.354c-.31 0-.606-.127-.825-.354a1.233 1.233 0 0 1-.341-.856V12Zm5.785.6c0-.32.123-.629.342-.855.219-.227.516-.355.825-.355.31 0 .606.128.825.354.219.227.342.535.342.856v16c0 .32-.123.629-.342.856a1.146 1.146 0 0 1-.825.354c-.31 0-.606-.127-.825-.354a1.234 1.234 0 0 1-.342-.856v-16ZM37.153 6H10.847a4.223 4.223 0 0 0-1.672.334 4.349 4.349 0 0 0-1.422.972A4.532 4.532 0 0 0 6.8 8.77a4.665 4.665 0 0 0-.34 1.73v27c.002.594.118 1.182.34 1.73.221.548.546 1.046.953 1.464.408.418.89.748 1.422.972.53.225 1.099.338 1.672.334h26.306a4.23 4.23 0 0 0 1.67-.333 4.35 4.35 0 0 0 1.42-.97c.408-.417.732-.913.955-1.46a4.666 4.666 0 0 0 .343-1.727V10.5a4.666 4.666 0 0 0-.34-1.728 4.534 4.534 0 0 0-.95-1.462 4.351 4.351 0 0 0-1.419-.973A4.224 4.224 0 0 0 37.162 6"/></svg>
